storage/app/icons/phosphoricons/light/table-light.svg

<svg xmlns="http://www.w3.org/2000/svg" fill="currentColor" viewBox="0 0 256 256"><path d="M224 50H32a6 6 0 0 0-6 6v136a14 14 0 0 0 14 14h176a14 14 0 0 0 14-14V56a6 6 0 0 0-6-6M38 110h44v36H38Zm56 0h124v36H94Zm124-48v36H38V62ZM38 192v-34h44v36H40a2 2 0 0 1-2-2m178 2H94v-36h124v34a2 2 0 0 1-2 2"/></svg>

<svg xmlns="http://www.w3.org/2000/svg" viewBox="0 0 256 256" fill="currentColor"><path d="M224,50H32a6,6,0,0,0-6,6V192a14,14,0,0,0,14,14H216a14,14,0,0,0,14-14V56A6,6,0,0,0,224,50ZM38,110H82v36H38Zm56,0H218v36H94ZM218,62V98H38V62ZM38,192V158H82v36H40A2,2,0,0,1,38,192Zm178,2H94V158H218v34A2,2,0,0,1,216,194Z"/></svg>
